Cloud/dashboard/static/tracks/watkins_glen.svg

<?xml version="1.0" encoding="UTF-8"?>
<!-- Uploaded to: SVG Find, www.svgfind.com, Generator: SVG Find Mixer Tools -->
<svg fill="#000000" width="800px" height="800px" version="1.1" viewBox="144 144 512 512" xmlns="http://www.w3.org/2000/svg">
 <path d="m610.39 265.46c-3.6641-6.5586-10.617-10.637-18.145-10.637-5.2578 0-10.281 1.9844-14.141 5.5859l-63.27 59.078c-5.6445 5.2695-13.883 7.2578-21.316 5.1211-8.5039-2.4453-13.594-11.395-11.367-19.891l14.672-53.312c2.6523-9.6367 3.4219-19.562 2.2969-29.5-2.2969-20.242-19.441-35.508-39.883-35.508-9.8516 0-19.012 3.543-26.492 10.242l-178.41 159.8c-6.6211 5.9297-11.754 12.961-15.258 20.898-3.4375 7.793-11.383 27.547-10.91 42.523 0.058594 1.8125 0.14844 3.6992 0.27734 5.6172 1.3398 21.031-6.7266 41.164-22.141 55.238l-4.5742 4.1797c-15.824 14.461-20.367 38.039-11.047 57.34l29.344 60.773c3.1602 6.5391 9.6406 10.598 16.91 10.598 3.8789 0 7.6133-1.1875 10.801-3.4375l79.199-55.902 3.0156 4.1641-35.223 25.496-9.4062 6.8086 16.234-1.3281 0.95703-4.8633 34.508-24.977-5.9492-8.2227 71.062-50.164c6.4531-4.5508 10.738-11.645 11.777-19.469 1.0352-7.8281-1.2734-15.797-6.3125-21.867l-27.422-33.004c-8.4531-10.176-8.7695-24.641-0.77344-35.176l43.895-57.785c3.3242-4.375 8.5898-6.9844 14.078-6.9844l0.80469 0.015625c5.8789 0.26562 10.941 4.4453 12.328 10.164l14.566 60.305c2.0664 8.5703 9.6914 14.559 18.531 14.559 4.9375 0 9.6289-1.918 13.203-5.4023l108.39-105.55c9.543-9.2852 11.672-23.891 5.1836-35.52zm-12.242 28.262-108.39 105.55c-2.1484 2.0898-4.5234 2.5273-6.1406 2.5273-3.3867 0-7.5547-2.1289-8.6875-6.8047l-14.566-60.305c-2.4336-10.074-11.363-17.438-21.719-17.906-9.0391-0.44141-17.922 3.7461-23.406 10.961l-43.895 57.781c-10.875 14.309-10.445 33.957 1.0391 47.781l27.426 33.004c3.2891 3.9609 4.7344 8.957 4.0586 14.062-0.67188 5.1055-3.3633 9.5508-7.5742 12.52l-154.4 109c-4.2383 2.9766-10.523 1.3047-12.742-3.293l-29.344-60.77c-7.3867-15.301-3.7852-33.996 8.7617-45.457l4.5742-4.1797c17.688-16.16 26.945-39.254 25.414-63.375-0.11719-1.8125-0.20703-3.582-0.26172-5.2812-0.28125-8.9531 3.4766-23.203 10.051-38.117 2.9141-6.6094 7.2031-12.477 12.742-17.438l178.41-159.8c5.5938-5.0078 12.418-7.6602 19.734-7.6602 12.996 0 27.863 9.293 29.82 26.516 0.98047 8.6484 0.30859 17.285-2 25.672l-14.688 53.379c-3.6211 13.836 4.6094 28.305 18.355 32.258 10.836 3.1172 22.801 0.22656 31.035-7.4492l63.27-59.078c1.9727-1.8438 4.543-2.8594 7.2227-2.8594 3.918 0 7.3945 2.0352 9.3008 5.4453 4.2578 7.625 2.8594 17.219-3.3984 23.316z"/>
</svg>

<?xml version="1.0" encoding="utf-8"?>
<svg fill="#000000" width="800px" height="800px" version="1.1" viewBox="144 144 512 512" xmlns="http://www.w3.org/2000/svg">
  <path d="M 610.39 265.46 C 606.726 258.901 599.773 254.823 592.245 254.823 C 586.987 254.823 581.964 256.807 578.104 260.409 L 514.834 319.487 C 509.189 324.756 500.951 326.745 493.518 324.608 C 485.014 322.163 479.924 313.213 482.151 304.717 L 496.823 251.405 C 499.475 241.768 500.245 231.843 499.12 221.905 C 496.823 201.663 479.679 186.397 459.237 186.397 C 449.385 186.397 440.225 189.94 432.745 196.639 L 254.335 356.439 C 247.714 362.369 242.581 369.4 239.077 377.337 C 235.639 385.13 227.694 404.884 228.167 419.86 C 228.225 421.673 228.315 423.559 228.444 425.477 C 229.784 446.508 221.718 466.641 206.303 480.715 L 201.729 484.895 C 185.905 499.356 181.362 522.934 190.682 542.235 L 220.026 603.008 C 223.186 609.547 229.667 613.606 236.936 613.606 C 240.815 613.606 244.549 612.418 247.737 610.168 L 402.134 501.18 C 408.587 496.629 412.872 489.535 413.911 481.711 C 414.946 473.883 412.638 465.914 407.599 459.844 L 380.177 426.84 C 371.724 416.664 371.407 402.199 379.403 391.664 L 423.298 333.879 C 426.623 329.504 431.888 326.895 437.376 326.895 L 438.181 326.91 C 444.06 327.176 449.122 331.356 450.509 337.074 L 465.075 397.379 C 467.141 405.95 474.766 411.938 483.606 411.938 C 488.544 411.938 493.235 410.02 496.809 406.536 L 605.199 300.986 C 614.742 291.701 616.871 277.095 610.383 265.466 L 610.39 265.46 Z M 598.148 293.722 L 489.758 399.272 C 487.61 401.362 485.235 401.799 483.617 401.799 C 480.231 401.799 476.063 399.67 474.93 394.995 L 460.364 334.69 C 457.93 324.616 449.001 317.252 438.645 316.784 C 429.606 316.342 420.723 320.53 415.239 327.745 L 371.344 385.526 C 360.469 399.835 360.899 419.483 372.383 433.307 L 399.809 466.311 C 403.098 470.272 404.543 475.268 403.868 480.373 C 403.196 485.478 400.504 489.923 396.293 492.893 L 241.893 601.893 C 237.655 604.869 231.37 603.197 229.151 598.6 L 199.807 537.83 C 192.421 522.529 196.022 503.834 208.569 492.373 L 213.143 488.193 C 230.831 472.033 240.088 448.939 238.557 424.818 C 238.44 423.005 238.35 421.236 238.296 419.537 C 238.014 410.584 241.772 396.334 248.347 381.42 C 251.261 374.81 255.55 368.943 261.089 363.982 L 439.499 204.182 C 445.092 199.174 451.917 196.521 459.233 196.521 C 472.229 196.521 487.096 205.814 489.053 223.037 C 490.033 231.686 489.361 240.322 487.053 248.709 L 472.365 302.088 C 468.744 315.924 476.974 330.393 490.72 334.346 C 501.556 337.464 513.521 334.573 521.755 326.897 L 585.025 267.819 C 586.997 265.975 589.568 264.96 592.247 264.96 C 596.165 264.96 599.642 266.995 601.548 270.405 C 605.806 278.03 604.408 287.624 598.15 293.721 L 598.148 293.722 Z"/>
</svg>
